svg/300/outlined/notifications.svg

<svg xmlns="http://www.w3.org/2000/svg" width="48" height="48" viewBox="0 -960 960 960"><path d="M180.001-204.616v-45.383h72.308v-315.924q0-81.241 49.307-144.889 49.308-63.649 128.385-78.918v-20.269q0-20.833 14.57-35.416 14.57-14.584 35.384-14.584t35.429 14.584q14.615 14.583 14.615 35.416v20.461q79.077 15.077 128.385 78.726 49.307 63.648 49.307 144.889v315.924h72.308v45.383H180.001ZM480-499.307Zm-.068 406.998q-29.855 0-51.047-21.24-21.192-21.24-21.192-51.067h144.614q0 29.923-21.26 51.115-21.26 21.192-51.115 21.192Zm-182.24-157.69h364.616v-315.924q0-75.77-53.269-129.039-53.27-53.269-129.039-53.269-75.769 0-129.039 53.269-53.269 53.269-53.269 129.039v315.924Z"/></svg>

<svg xmlns="http://www.w3.org/2000/svg" width="48" height="48" viewBox="0 -960 960 960"><path d="M180-204.62V-250h72.31v-315.92q0-81.24 49.31-144.89 49.3-63.65 128.38-78.92V-810q0-20.83 14.57-35.42Q459.14-860 479.95-860q20.82 0 35.43 14.58Q530-830.83 530-810v20.46q79.08 15.08 128.38 78.73 49.31 63.65 49.31 144.89V-250H780v45.38H180Zm300-294.69Zm-.07 407q-29.85 0-51.04-21.24-21.2-21.24-21.2-51.07h144.62q0 29.93-21.26 51.12-21.26 21.19-51.12 21.19ZM297.69-250h364.62v-315.92q0-75.77-53.27-129.04-53.27-53.27-129.04-53.27-75.77 0-129.04 53.27-53.27 53.27-53.27 129.04V-250Z"/></svg>
